assets/Coin/Flat/coin_flat.svg

<svg width="32" height="32" viewBox="0 0 32 32" fill="none" xmlns="http://www.w3.org/2000/svg">
<path d="M16 30C23.732 30 30 23.732 30 16C30 8.26801 23.732 2 16 2C8.26801 2 2 8.26801 2 16C2 23.732 8.26801 30 16 30Z" fill="#F9C23C"/>
<path opacity="0.53" d="M27 16C27 22.0751 22.0751 27 16 27C9.92487 27 5 22.0751 5 16C5 9.92487 9.92487 5 16 5C22.0751 5 27 9.92487 27 16ZM22.32 19.89C22.25 19.67 22.04 19.52 21.81 19.52H21.84V11.76C22.27 11.48 22.35 10.79 21.83 10.48L16.44 7.22004C16.2 7.07004 15.9 7.07004 15.66 7.22004L10.26 10.48C9.74 10.79 9.82 11.48 10.24 11.76V19.53H10.13C9.89 19.53 9.68 19.69 9.62 19.92L9.27 21.17C9.17 21.51 9.43 21.85 9.78 21.85H22.23C22.58 21.84 22.84 21.49 22.73 21.14L22.32 19.89ZM11.9 11.88V19.52H13.56V11.88H11.9ZM15.21 11.88V19.52H16.9V11.88H15.21ZM18.56 11.88V19.52H20.18V11.88H18.56Z" fill="#D3883E"/>
</svg>

<svg xmlns="http://www.w3.org/2000/svg" width="32" height="32" fill="none"><path fill="#F9C23C" d="M16 30c7.732 0 14-6.268 14-14S23.732 2 16 2 2 8.268 2 16s6.268 14 14 14Z"/><path fill="#D3883E" d="M27 16c0 6.075-4.925 11-11 11S5 22.075 5 16 9.925 5 16 5s11 4.925 11 11Zm-4.68 3.89a.537.537 0 0 0-.51-.37h.03v-7.76c.43-.28.51-.97-.01-1.28l-5.39-3.26a.732.732 0 0 0-.78 0l-5.4 3.26c-.52.31-.44 1-.02 1.28v7.77h-.11c-.24 0-.45.16-.51.39l-.35 1.25c-.1.34.16.68.51.68h12.45c.35-.01.61-.36.5-.71l-.41-1.25ZM11.9 11.88v7.64h1.66v-7.64H11.9Zm3.31 0v7.64h1.69v-7.64h-1.69Zm3.35 0v7.64h1.62v-7.64h-1.62Z" opacity=".53"/></svg>
